docs/assets/support.svg

<svg width="36" height="35" viewBox="0 0 36 35" fill="none" xmlns="http://www.w3.org/2000/svg">
<g clip-path="url(#clip0_1_4935)">
<path d="M25.4902 9.30481C26.3277 9.33401 26.8536 10.1224 26.5712 10.9594C26.0745 12.3999 25.5681 13.8404 25.0618 15.2809C22.8706 21.5295 20.6892 27.7781 18.498 34.017C18.2156 34.8346 17.5339 35.2239 16.8814 34.8638C16.599 34.708 16.3361 34.4063 16.1998 34.1046C14.8559 31.1457 13.5217 28.1772 12.2459 25.1989C11.9343 24.4786 11.5058 24.0504 10.7852 23.7389C7.776 22.4541 4.79603 21.1013 1.80632 19.7678C1.09542 19.4564 0.82274 18.8043 1.11489 18.1716C1.28045 17.8115 1.58234 17.6266 1.93292 17.5C4.94211 16.4489 7.95129 15.3977 10.9605 14.3465C15.596 12.7211 20.2315 11.1054 24.867 9.48C25.0715 9.41187 25.2857 9.36321 25.4902 9.30481Z" fill="#3A2657"/>
<path d="M24.3313 3.4747C24.3313 2.73499 24.3313 1.99528 24.3313 1.25557C24.3313 0.515862 24.828 -0.00972214 25.5097 1.08952e-05C26.1719 1.08952e-05 26.6685 0.525595 26.6685 1.23611C26.6685 2.74473 26.6685 4.24361 26.6685 5.75223C26.6685 6.46275 26.1719 6.98833 25.5097 6.98833C24.8377 6.99806 24.341 6.46275 24.3313 5.73277C24.3313 4.98333 24.3313 4.23388 24.3313 3.4747Z" fill="#3A2657"/>
<path d="M32.5019 9.32422C33.2517 9.32422 34.0113 9.32422 34.7612 9.32422C35.4721 9.32422 35.998 9.8206 35.998 10.4824C35.998 11.1443 35.4818 11.6504 34.7806 11.6601C33.2615 11.6699 31.7423 11.6699 30.2231 11.6601C29.5219 11.6601 28.996 11.1443 29.0057 10.4824C29.0155 9.8206 29.5316 9.33395 30.2425 9.32422C30.9924 9.32422 31.7423 9.32422 32.5019 9.32422Z" fill="#3A2657"/>
<path d="M33.1056 4.22413C33.0277 4.36039 32.9401 4.68158 32.7356 4.89571C31.7812 5.87874 30.8074 6.85205 29.8335 7.80588C29.3466 8.29254 28.6357 8.27307 28.1682 7.80588C27.7203 7.34843 27.7105 6.64765 28.178 6.17073C29.1421 5.1877 30.1257 4.20466 31.1093 3.24109C31.4696 2.88097 31.9175 2.8031 32.385 2.99776C32.8427 3.19242 33.0764 3.56228 33.1056 4.22413Z" fill="#3A2657"/>
<path d="M23.1628 6.85208C23.1238 7.42633 22.9388 7.80592 22.5005 8.02004C22.0526 8.23417 21.5949 8.20497 21.2443 7.86432C20.212 6.87155 19.1992 5.85931 18.2059 4.82761C17.7871 4.38962 17.8553 3.69857 18.274 3.27032C18.6928 2.84207 19.394 2.77394 19.8225 3.19246C20.8645 4.19496 21.8773 5.21693 22.8901 6.25836C23.0556 6.43356 23.1043 6.71582 23.1628 6.85208Z" fill="#3A2657"/>
<path d="M33.0863 16.77C33.0376 17.3735 32.8331 17.7433 32.3948 17.938C31.9566 18.1424 31.5086 18.1035 31.1678 17.7823C30.1355 16.7895 29.1227 15.7773 28.1294 14.7456C27.7106 14.3076 27.7691 13.6165 28.1878 13.1883C28.6163 12.7503 29.3272 12.6919 29.7654 13.1201C30.788 14.1032 31.791 15.1154 32.7746 16.1374C32.9499 16.332 33.0181 16.624 33.0863 16.77Z" fill="#3A2657"/>
</g>
<defs>
<clipPath id="clip0_1_4935">
<rect width="35" height="35" fill="white" transform="translate(0.998047)"/>
</clipPath>
</defs>
</svg>

<svg xmlns="http://www.w3.org/2000/svg" width="36" height="35" fill="none" xmlns:v="https://vecta.io/nano"><g clip-path="url(#A)" fill="#3a2657"><path d="M25.49 9.305c.837.029 1.363.818 1.081 1.655l-1.509 4.322-6.564 18.736c-.282.818-.964 1.207-1.617.847-.282-.156-.545-.457-.682-.759L12.245 25.2c-.312-.72-.74-1.148-1.461-1.46l-8.979-3.971c-.711-.311-.984-.963-.691-1.596.166-.36.467-.545.818-.672l9.028-3.153L24.867 9.48l.623-.175zm-1.159-5.83V1.256c0-.74.497-1.265 1.178-1.256.662 0 1.159.526 1.159 1.236v4.516c0 .711-.497 1.236-1.159 1.236-.672.01-1.169-.526-1.178-1.256V3.475zm8.171 5.849h2.259c.711 0 1.237.496 1.237 1.158s-.516 1.168-1.217 1.178h-4.558c-.701 0-1.227-.516-1.217-1.178s.526-1.148 1.237-1.158h2.259zm.604-5.1c-.078.136-.166.457-.37.672l-2.902 2.91c-.487.487-1.198.467-1.665 0-.448-.457-.458-1.158.01-1.635l2.931-2.93c.36-.36.808-.438 1.276-.243.458.195.691.565.721 1.226zm-9.943 2.628c-.039.574-.224.954-.662 1.168-.448.214-.906.185-1.256-.156l-3.038-3.037c-.419-.438-.351-1.129.068-1.557s1.12-.496 1.549-.078l3.068 3.066c.165.175.214.457.273.594zm9.923 9.918c-.049.604-.253.973-.692 1.168-.438.204-.886.166-1.227-.156l-3.038-3.037c-.419-.438-.36-1.129.058-1.557.428-.438 1.139-.496 1.578-.068l3.009 3.017c.175.195.243.487.312.633z"/></g><defs><clipPath id="A"><path fill="#fff" transform="translate(.998)" d="M0 0h35v35H0z"/></clipPath></defs></svg>
